X:1
T:Praeludium 2
T:BWV 847
T:Fuga 2
%%score { ( 1 3 ) | ( 2 4 ) }
L:1/8
M:4/4
K:Eb
V:1 treble nm="Piano"
V:3 treble 
V:2 bass 
V:4 bass 
V:1
 c/E/D/E/ C/E/D/E/ c/E/D/E/ C/E/D/E/ | A/F/=E/F/ C/F/E/F/ A/F/E/F/ C/F/E/F/ | %2
 =B/F/_E/F/ D/F/E/F/ B/F/E/F/ D/F/E/F/ | c/G/F/G/ E/G/F/G/ c/G/F/G/ E/G/F/G/ | %4
 e/A/G/A/ E/A/G/A/ e/A/G/A/ E/A/G/A/ | d/^F/=E/F/ D/F/E/F/ d/F/E/F/ D/F/E/F/ | %6
 d/G/^F/G/ D/G/F/G/ d/G/F/G/ D/G/F/G/ | c/=E/D/E/ C/E/D/E/ c/E/D/E/ C/E/D/E/ | %8
 c/F/=E/F/ C/F/E/F/ c/F/E/F/ C/F/E/F/ | B/F/_E/F/ D/F/E/F/ B/F/E/F/ D/F/E/F/ | %10
 B/G/F/G/ E/G/F/G/ B/G/F/G/ E/G/F/G/ | A/G/F/G/ E/G/F/G/ A/G/F/G/ E/G/F/G/ | %12
 A/D/C/D/ B,/D/C/D/ A/D/C/D/ B,/D/C/D/ | G/B,/A,/B,/ E/B,/A,/B,/ G/B,/A,/B,/ E/B,/A,/B,/ | %14
 F/C/B,/C/ =A,/C/B,/C/ F/C/B,/C/ A,/C/B,/C/ | F/D/C/D/ =B,/D/C/D/ F/D/C/D/ B,/D/C/D/ | %16
 F/D/C/D/ =B,/D/C/D/ F/D/C/D/ B,/D/C/D/ | E/C/=B,/C/ G,/C/B,/C/ E/C/B,/C/ G,/C/B,/C/ | %18
 F,/E/D/E/ F/E/D/E/ F,/E/D/E/ F/E/D/E/ | ^F,/C/=B,/C/ E/C/B,/C/ F,/C/B,/C/ E/C/B,/C/ | %20
 E/C/=B,/C/ G,/C/B,/C/ E/C/B,/C/ G,/C/B,/C/ | ^F/C/=B,/C/ =A,/C/B,/C/ F/C/B,/C/ A,/C/B,/C/ | %22
 G/C/=B,/C/ D/C/B,/C/ G/C/B,/C/ D/C/B,/C/ | A/C/=B,/C/ D/C/B,/C/ A/C/B,/C/ D/C/B,/C/ | x8 | x8 | %26
 x3/2 C/ E/C/=B,/C/ ^F/C/=A/F/ E/C/B,/C/ | %27
[Q:1/4=144]"^P(resto)" z/ d/c/d/ e/c/=B/c/ =A/c/B/c/ d/B/A/B/ | %28
 G/=B/=A/B/ c/A/G/A/ ^F/A/G/A/ B/G/F/G/ | D/g/=f/g/ a/f/e/f/ d/f/e/f/ g/e/d/e/ | %30
 c/e/d/e/ f/d/c/d/ =B/d/c/d/ e/c/B/c/ | G/c/=B/c/ A/f/e/f/ G/e/d/e/ F/d/c/d/ | %32
 E/c/=B/c/ A/F/E/F/ G/E/D/E/ F/D/C/D/ | %33
[Q:1/4=56]"^Adagio" =E-E/4C/4D/4E/4F/8G/8A/8B/8c/8B/8A/8G/8F/G/4E/4 MF-F/4G/4F/4E/4 F/4G/4A/4G/4F/8_E/8D/8E/8F/8D/8E/8F/8 | %34
[Q:1/4=112]"^Allegro" =B,>[K:bass]D, F,/A,/G,/F,/ =B,/F,/D/F,/ B,/A,/G,/F,/ | %35
 =E,/_D/_B,/G,/ C/A,/F,/A,/ G,/B,/G,/E,/ A,/F,/=D,/F,/ | %36
 =E,/G,/E,/C,/ F,/D,/=B,,/D,/ z z/ D,/ E,/G,/_B,/G,/ | %37
[K:treble]"^To my darling daughter Stephanie.\nYou should now be able to appreciate these.\nAll my love, Dad" A,/C/F/D/ F/A/c/=B/ c/G/F/D/ !fermata!=E2 |] %38
[M:4/4]"^a 3 voci" z8 | z8 | z g/^f/ gc eg/f/ g=a | dg/^f/ g=a c/d/ e2 d/c/ | Be/d/ eG Af/e/ f=A | %43
 Bg/f/ g=B cd/e/ f2- | fe/d/ c/_B/A/G/ Fagf | edef =BcdB | cg/^f/ gd e2 z =e | ff/=e/ fc d2 z d | %48
 ee/d/ eB ce/d/ ef | Be/d/ ef A/B/ c2 B/A/ | G/E/F/G/ A/B/c/d/ e/d/c/d/ e/f/g/=a/ | %51
 b/F/G/A/ B/c/d/=e/ f/_e/d/e/ f/g/=a/=b/ | c'=b/=a/ g/=f/e/d/ cedc | B=ABc ^FGAF | %54
 Gd/c/ d z z =e/d/ e z | z ^f/=e/ f z z G/=F/ G z | z =A/G/ A z z =B/A/ B z | z c/=B/ cG Ac/B/ cd | %58
 Gc/=B/ cd F/G/ A2 G/F/ | Ec/=B/ cG A2 z =A | BB/=A/ BF G2 z G- | GA/B/ c/=B/c/A/ F4- | %62
 Fd/c/ dF Ee/d/ eG | Ff/e/ fA G/f/e/d/ c/=B/=A/G/ | cfed z AGF | GF/E/ FD AG z =A | %66
 =Bc F/E/D/C/ Cc/B/ cG | Ac/=B/ c[Bd] Gc/B/ cd | F/G/ A2 G/F/ =E4 |] %69
V:2
 C,/G,/F,/G,/ E,/G,/F,/G,/ C,/G,/F,/G,/ E,/G,/F,/G,/ | %1
 C,/A,/G,/A,/ F,/A,/G,/A,/ C,/A,/G,/A,/ F,/A,/G,/A,/ | %2
 C,/A,/G,/A,/ F,/A,/G,/A,/ C,/A,/G,/A,/ F,/A,/G,/A,/ | %3
 C,/E,/D,/E,/ G,/E,/D,/E,/ C,/E,/D,/E,/ G,/E,/D,/E,/ | %4
 C,/C/B,/C/ A,/C/B,/C/ C,/C/B,/C/ A,/C/B,/C/ | %5
 C,/=A,/G,/A,/ ^F,/A,/G,/A,/ C,/A,/G,/A,/ F,/A,/G,/A,/ | %6
 B,,/B,/=A,/B,/ G,/B,/A,/B,/ B,,/B,/A,/B,/ G,/B,/A,/B,/ | %7
 B,,/G,/F,/G,/ =E,/G,/F,/G,/ B,,/G,/F,/G,/ E,/G,/F,/G,/ | %8
 A,,/A,/G,/A,/ F,/A,/G,/A,/ A,,/A,/G,/A,/ F,/A,/G,/A,/ | %9
 A,,/D,/C,/D,/ F,/D,/C,/D,/ A,,/D,/C,/D,/ F,/D,/C,/D,/ | %10
 G,,/E,/D,/E,/ G,/E,/D,/E,/ G,,/E,/D,/E,/ G,/E,/D,/E,/ | %11
 C,/E,/D,/E,/ A,/E,/D,/E,/ C,/E,/D,/E,/ A,/E,/D,/E,/ | %12
 D,/F,/E,/F,/ A,/F,/E,/F,/ D,/F,/E,/F,/ A,/F,/E,/F,/ | %13
 E,/G,/F,/G,/ A,/G,/F,/G,/ E,/G,/F,/G,/ A,/G,/F,/G,/ | %14
 E,/=A,/G,/A,/ F,/A,/G,/A,/ E,/A,/G,/A,/ F,/A,/G,/A,/ | %15
 D,/F,/E,/F,/ _A,/F,/E,/F,/ D,/F,/E,/F,/ A,/F,/E,/F,/ | %16
 C,/F,/=E,/F,/ A,/F,/E,/F,/ C,/F,/E,/F,/ A,/F,/E,/F,/ | %17
 C,/_E,/D,/E,/ F,/E,/D,/E,/ !courtesy!_B,,/E,/D,/E,/ F,/E,/D,/E,/ | %18
 A,,/C,/=B,,/C,/ D,/C,/B,,/C,/ A,,/C,/B,,/C,/ D,/C,/B,,/C,/ | %19
 =A,,/E,/D,/E,/ C,/E,/D,/E,/ A,,/E,/D,/E,/ C,/E,/D,/E,/ | %20
 G,,/E,/D,/E,/ F,/E,/D,/E,/ G,,/E,/D,/E,/ F,/E,/D,/E,/ | %21
 G,,/E,/D,/E,/ C,/E,/D,/E,/ G,,/E,/D,/E,/ C,/E,/D,/E,/ | %22
 G,,/E,/D,/E,/ F,/E,/D,/E,/ G,,/E,/D,/E,/ F,/E,/D,/E,/ | %23
 G,,/E,/D,/E,/ F,/E,/D,/E,/ G,,/E,/D,/E,/ F,/E,/D,/E,/ | %24
 G,,/=B,,/D,/ F,/ A,/F,/=E,/F,/ =B,/F,/D/B,/ A,/F,/E,/F,/ | %25
 G,,/C,/E,/ G,/ C/G,/^F,/G,/[I:staff -1] E/C/G/E/[I:staff +1] C/A,/G,/A,/ | %26
 G,,/=A,,/^F,/ x/ x2 x4 | G,,8- | G,,/D/C/D/ E/C/=B,/C/ =A,/C/B,/C/ D/B,/A,/B,/ | %29
 G,/=B,/=A,/B,/ C/_A,/G,/A,/ F,/=A,/G,/A,/ =B,/G,/F,/G,/ | %30
 E,/[K:treble]G/F/G/ A/F/E/F/ D/F/E/F/ G/E/D/E/ | %31
 C/E/D/E/ F/D/C/D/ E/C/=B,/C/ D/[K:bass]B,/=A,/B,/ | C/E/D/E/ F,/D/C/D/ E,/C/=B,/C/ D,/B,/=A,/B,/ | %33
 !arpeggio![G,B,]2 z2 !arpeggio![F,A,]2 z2 | z/ A,,/=B,,- B,,2- B,,4 | z8 | x4 z/ G,,/C,- C,2- | %37
 C,8 |][M:4/4] z8 | z8 | z8 | z8 | z8 | z8 | z C/=B,/ CG, A,C/B,/ CD | %45
 G,C/=B,/ CD F,/G,/ A,2 G,/F,/ | E,/C/=B,/=A,/ G,/F,/E,/D,/ C,/D,/E,/D,/ C,/_B,,/_A,,/G,,/ | %47
 F,,/B,/A,/G,/ F,/E,/D,/C,/ B,,/C,/D,/C,/ B,,/A,,/G,,/F,,/ | %48
 E,,/A,/G,/F,/ E,/_D,/C,/B,,/ A,,CB,A, | z A,B,C z A,/G,/ A,F, | B,CB,A, B,G,F,E, | %51
 F,_DCB, CA,G,F, | G, z z2 z C,_B,,=A,, | z E,D,C, D,C,/B,,/ C,D, | G,,B,/=A,/ B,D, E,C/B,/ C=E, | %55
 F,D/C/ D^F, G,2 z/ G,,/=A,,/=B,,/ | C,/D,/E,- E,/=A,,/B,,/C,/ D,/E,/F,- F,/=B,,/C,/D,/ | %57
 E, z z =E, F, F,,_E,,D,, | z A,,G,,F,, G,,F,,/E,,/ F,,G,, | %59
 C,/D,/E,/D,/ C,/B,,/A,,/G,,/ F,,/B,/A,/G,/ F,/E,/D,/C,/ | %60
 B,,/C,/D,/C,/ B,,/A,,/G,,/F,,/ E,,/A,/G,/F,/ E,/D,/C,/B,,/ | %61
 A,,/B,,/C,/B,,/ A,,/G,,/F,,/E,,/ D,,/G,/F,/E,/ D,/C,/=B,,/=A,,/ | %62
 G,,2 z2 z/ G,,/=A,,/=B,,/ C,/D,/E,/F,/ | G,/F,/A,/G,/ F,/E,/D,/C,/ =B,,C,/B,,/ C,G,, | %64
 A,,C,/=B,,/ C,D, G,,C,/B,,/ C,D, | F,,/G,,/ A,,2 G,,/F,,/ E,,2 z E, | D,C,G,G,, [C,,C,]4- | %67
 [C,,C,]8- | [C,,C,]8 |] %69
V:3
 x8 | x8 | x8 | x8 | x8 | x8 | x8 | x8 | x8 | x8 | x8 | x8 | x8 | x8 | x8 | x8 | x8 | x8 | x8 | %19
 x8 | x8 | x8 | x8 | x8 | x8 | x8 | x8 | x8 | x8 | x8 | x8 | x8 | x8 | C x x2 C2 x2 | %34
 x3/2[K:bass] x13/2 | x8 | x8 |[K:treble] x8 |][M:4/4] z c/=B/ cG Ac/B/ cd | %39
 Gc/=B/ cd F/G/ A2 G/F/ | E/c/=B/=A/ G/=F/E/D/ Cedc | _B=ABc ^FGAF | G2 z/ C/D/E/ F/G/A- A/D/E/F/ | %43
 G/=A/B- B/E/F/G/ _A/G/F/E/ Dc/=B/ | c2 z2 z fed | z AGF GF/E/ FD | G2 z =B cc/B/ cG | %47
 A2 z =A BB/A/ BF | G2 z G AAGF | x8 | x8 | x8 | x G/^F/ GC EG/F/ G=A | DG/^F/ G=A C/D/ E2 D/C/ | %54
 B, z z/ D/=E/^F/ G/=A/B- B/=E/=F/G/ | =A/B/c- c/^F/G/A/ B_E/D/ EG, | A,F/E/ F=A, B,G/F/ G=B, | %57
 C/F/E/D/ C/[I:staff +1]_B,/A,/G,/ F,[I:staff -1] AGF | EDEF =B,CDB, | C2 z =E FF/E/ FC | %60
 D2 z D EE/D/ EB, | C4- CD/E/ F/E/F/D/ | =B, z z B, C z z E | D z z F- F z z F | EAGF EDEF | %65
 =B,CDB, B,C z C | F/D/E/C/- C=B, C2 z =E | F2 z [FA] FE/D/ E[FA] | [=B,D] z [B,D] z [G,C]4 |] %69
V:4
 x8 | x8 | x8 | x8 | x8 | x8 | x8 | x8 | x8 | x8 | x8 | x8 | x8 | x8 | x8 | x8 | x8 | x8 | x8 | %19
 x8 | x8 | x8 | x8 | x8 | x8 | x8 | x8 | x8 | x8 | x8 | x/[K:treble] x15/2 | x13/2[K:bass] x3/2 | %32
 x8 | C,2 z2 C,2 z2 | z/ C,,3/2- C,,2- C,,4 | x8 | z4 C,,4- | C,,8 |][M:4/4] x8 | x8 | x8 | x8 | %42
 x8 | x8 | x8 | x8 | x8 | x8 | x8 | G,F,G,A, D,E,F,D, | E,A,G,F, G,E,D,C, | D,B,A,G, A,F,E,=D, | %52
 E, x x2 x4 | x8 | x8 | x8 | x8 | x8 | x8 | x8 | x8 | x8 | x8 | x8 | x8 | x8 | x8 | x8 | x8 |] %69

